; generated by PrusaSlicer 2.9.2 on 2025-08-26 at 23:53:29 UTC

; 

; external perimeters extrusion width = 0.42mm
; perimeters extrusion width = 0.44mm
; infill extrusion width = 0.44mm
; solid infill extrusion width = 0.44mm
; top infill extrusion width = 0.40mm
; support material extrusion width = 0.36mm
; first layer extrusion width = 0.42mm

; external perimeters extrusion width = 0.42mm
; perimeters extrusion width = 0.44mm
; infill extrusion width = 0.44mm
; solid infill extrusion width = 0.44mm
; top infill extrusion width = 0.40mm
; support material extrusion width = 0.36mm
; first layer extrusion width = 0.42mm

; external perimeters extrusion width = 0.42mm
; perimeters extrusion width = 0.44mm
; infill extrusion width = 0.44mm
; solid infill extrusion width = 0.44mm
; top infill extrusion width = 0.40mm
; support material extrusion width = 0.36mm
; first layer extrusion width = 0.42mm

; external perimeters extrusion width = 0.42mm
; perimeters extrusion width = 0.44mm
; infill extrusion width = 0.44mm
; solid infill extrusion width = 0.44mm
; top infill extrusion width = 0.40mm
; support material extrusion width = 0.36mm
; first layer extrusion width = 0.42mm

; external perimeters extrusion width = 0.42mm
; perimeters extrusion width = 0.44mm
; infill extrusion width = 0.44mm
; solid infill extrusion width = 0.44mm
; top infill extrusion width = 0.40mm
; support material extrusion width = 0.36mm
; first layer extrusion width = 0.42mm

; external perimeters extrusion width = 0.42mm
; perimeters extrusion width = 0.44mm
; infill extrusion width = 0.44mm
; solid infill extrusion width = 0.44mm
; top infill extrusion width = 0.40mm
; support material extrusion width = 0.36mm
; first layer extrusion width = 0.42mm

; external perimeters extrusion width = 0.42mm
; perimeters extrusion width = 0.44mm
; infill extrusion width = 0.44mm
; solid infill extrusion width = 0.44mm
; top infill extrusion width = 0.40mm
; support material extrusion width = 0.36mm
; first layer extrusion width = 0.42mm

; external perimeters extrusion width = 0.42mm
; perimeters extrusion width = 0.44mm
; infill extrusion width = 0.44mm
; solid infill extrusion width = 0.44mm
; top infill extrusion width = 0.40mm
; support material extrusion width = 0.36mm
; first layer extrusion width = 0.42mm

; external perimeters extrusion width = 0.42mm
; perimeters extrusion width = 0.44mm
; infill extrusion width = 0.44mm
; solid infill extrusion width = 0.44mm
; top infill extrusion width = 0.40mm
; support material extrusion width = 0.36mm
; first layer extrusion width = 0.42mm

M201 X500 Y500 Z100 E1000 ; sets maximum accelerations, mm/sec^2
M203 X500 Y500 Z5 E60 ; sets maximum feedrates, mm / sec
M204 S500 T1000 ; sets acceleration (S) and retract acceleration (R), mm/sec^2
M205 X8.00 Y8.00 Z0.40 E5.00 ; sets the jerk limits, mm/sec
M205 S0 T0 ; sets the minimum extruding and travel feed rate, mm/sec

; printing object Switch_V2.2.STL id:4 copy 0
; stop printing object Switch_V2.2.STL id:4 copy 0
; printing object Switch_V2.2.STL id:5 copy 0
; stop printing object Switch_V2.2.STL id:5 copy 0
; printing object Switch_V2.2.STL id:6 copy 0
; stop printing object Switch_V2.2.STL id:6 copy 0
; printing object Top_Friction.STL id:0 copy 0
; stop printing object Top_Friction.STL id:0 copy 0
; printing object Seperator_V2.2.STL id:7 copy 0
; stop printing object Seperator_V2.2.STL id:7 copy 0
; printing object Top_Friction.STL id:1 copy 0
; stop printing object Top_Friction.STL id:1 copy 0
; printing object Top_Friction.STL id:2 copy 0
; stop printing object Top_Friction.STL id:2 copy 0
; printing object Top_Friction.STL id:3 copy 0
; stop printing object Top_Friction.STL id:3 copy 0
; printing object Seperator_V2.2.STL id:8 copy 0
; stop printing object Seperator_V2.2.STL id:8 copy 0

;TYPE:Custom
G90 ; use absolute coordinates
M83 ; extruder relative mode
M104 S150 ; set temporary nozzle temp to prevent oozing during homing
M140 S60 ; set final bed temp
G4 S30 ; allow partial nozzle warmup
G28 ; home all axis
G1 Z50 F240
G1 X2.0 Y10 F3000
M104 S215 ; set final nozzle temp
M190 S60 ; wait for bed temp to stabilize
M109 S215 ; wait for nozzle temp to stabilize
G1 Z0.28 F240
G92 E0
G1 X2.0 Y140 E10 F1500 ; prime the nozzle
G1 X2.3 Y140 F5000
G92 E0
G1 X2.3 Y10 E10 F1200 ; prime the nozzle
G92 E0
G21 ; set units to millimeters
G90 ; use absolute coordinates
M83 ; use relative distances for extrusion
; Filament gcode
M107
;LAYER_CHANGE
;Z:0.2
;HEIGHT:0.2
G1 E-4 F3600
G1 Z.2 F9000
G1 X30.052 Y47.681
G1 Z.2
G1 E4 F2400
M204 S500
;TYPE:Skirt/Brim
;WIDTH:0.42
G1 F1200
G1 X31.334 Y47.074 E.04447
G1 X32.695 Y46.675 E.04447
G1 X117.718 Y28.67 E2.72496
G1 X118.962 Y28.566 E.03914
G1 X182.303 Y28.569 E1.98601
G1 X183.77 Y28.726 E.04626
G1 X185.288 Y29.148 E.0494
G1 X186.603 Y29.768 E.04558
G1 X187.781 Y30.572 E.04472
G1 X188.819 Y31.551 E.04474
G1 X189.321 Y32.154 E.0246
G1 X189.97 Y33.135 E.03688
G1 X190.58 Y34.424 E.04471
G1 X190.981 Y35.793 E.04473
G1 X191.172 Y37.56 E.05573
G1 X191.172 Y69.749 E1.00926
G1 X189.239 Y125.662 E1.75416
G1 X182.383 Y201.817 E2.39744
G1 X182.123 Y203.175 E.04335
G1 X181.646 Y204.511 E.04448
G1 X180.966 Y205.756 E.04448
G1 X180.099 Y206.879 E.04448
G1 X178.87 Y208.007 E.0523
G1 X177.327 Y208.952 E.05673
G1 X175.764 Y209.535 E.0523
G1 X174.619 Y209.768 E.03664
G1 X173.815 Y209.839 E.02531
G1 X107.805 Y209.849 E2.0697
G1 X30.883 Y208.244 E2.41236
G1 X29.445 Y208.063 E.04544
G1 X28.084 Y207.664 E.04447
G1 X26.802 Y207.057 E.04447
G1 X25.827 Y206.413 E.03664
G1 X25.231 Y205.916 E.02433
G1 X24.102 Y204.687 E.05233
G1 X23.335 Y203.494 E.04447
G1 X22.642 Y201.822 E.05675
G1 X22.317 Y200.25 E.05033
G1 X21.26 Y189.387 E.34221
G1 X21.262 Y169.445 E.62527
G1 X24.512 Y65.252 E3.26849
G1 X25.702 Y53.669 E.36509
G1 X26.014 Y52.543 E.03664
G1 X26.585 Y51.244 E.04449
G1 X27.121 Y50.369 E.03217
G1 X27.849 Y49.454 E.03666
G1 X28.881 Y48.481 E.04447
G1 X30.003 Y47.715 E.0426
G1 E-2.8 F3600
;WIPE_START
G1 F7200
G1 X30.052 Y47.681 E-.02833
G1 X31.334 Y47.074 E-.67376
G1 X32.34 Y46.779 E-.49791
;WIPE_END
G1 X113.47 Y47.715 F9000
G1 E4 F2400
G1 F1200
G1 X113.47 Y37.511 E.31994
G1 X113.671 Y36.184 E.04208
G1 X114.184 Y34.916 E.04289
G1 X114.966 Y33.841 E.04168
G1 X116.005 Y32.958 E.04275
G1 X117.43 Y32.296 E.04927
G1 X118.938 Y32.041 E.04795
G1 X182.393 Y32.051 E1.98959
G1 X183.419 Y32.204 E.03253
G1 X184.412 Y32.537 E.03284
G1 X186.168 Y33.805 E.06791
G1 X186.851 Y34.695 E.03518
G1 X187.32 Y35.615 E.03238
G1 X187.674 Y37.222 E.05159
G1 X187.686 Y70.085 E1.0304
G1 X187.318 Y71.683 E.05142
G1 X186.487 Y73.139 E.05256
G1 X184.913 Y74.502 E.06528
G1 X183.173 Y75.158 E.0583
G1 X182.642 Y75.201 E.0167
G1 X182.616 Y75.605 E.01269
G1 X182.253 Y76.835 E.04021
G1 X181.585 Y78.009 E.04235
G1 X180.875 Y78.792 E.03314
G1 X180.075 Y79.41 E.0317
G1 X178.717 Y80.02 E.04668
G1 X177.229 Y80.268 E.0473
G1 X118.94 Y80.268 E1.82761
G1 X117.613 Y80.068 E.04208
G1 X116.345 Y79.555 E.04289
G1 X115.27 Y78.772 E.0417
G1 X114.387 Y77.733 E.04275
G1 X113.725 Y76.308 E.04927
G1 X113.47 Y74.801 E.04792
G1 X113.47 Y47.775 E.84738
G1 X113.847 Y47.775 F9000
G1 F1200
G1 X113.847 Y37.525 E.32138
G1 X114.04 Y36.263 E.04003
G1 X114.524 Y35.081 E.04005
G1 X115.256 Y34.083 E.03881
G1 X116.228 Y33.263 E.03987
G1 X117.564 Y32.649 E.0461
G1 X118.953 Y32.418 E.04415
G1 X182.379 Y32.428 E1.98868
G1 X183.346 Y32.574 E.03066
G1 X184.264 Y32.884 E.03038
G1 X185.922 Y34.093 E.06434
G1 X186.54 Y34.908 E.03207
G1 X186.972 Y35.763 E.03004
G1 X187.301 Y37.282 E.04873
G1 X187.309 Y70.063 E1.02783
G1 X186.957 Y71.569 E.04849
G1 X186.176 Y72.923 E.04901
G1 X184.749 Y74.161 E.05923
G1 X183.068 Y74.795 E.05633
G1 X182.277 Y74.84 E.02484
G1 X182.248 Y75.522 E.0214
G1 X181.898 Y76.707 E.03874
G1 X181.269 Y77.803 E.03962
G1 X180.608 Y78.525 E.03069
G1 X179.864 Y79.097 E.02942
G1 X178.586 Y79.666 E.04386
G1 X177.214 Y79.891 E.04359
G1 X118.954 Y79.891 E1.8267
G1 X117.693 Y79.698 E.04
G1 X116.51 Y79.215 E.04006
G1 X115.512 Y78.482 E.03882
G1 X114.692 Y77.51 E.03987
G1 X114.078 Y76.174 E.0461
G1 X113.847 Y74.786 E.04412
G1 X113.847 Y47.835 E.84503
G1 X114.224 Y47.835 F9000
G1 F1200
G1 X114.224 Y37.539 E.32282
G1 X114.398 Y36.383 E.03665
G1 X114.842 Y35.284 E.03716
G1 X115.547 Y34.325 E.03732
G1 X116.45 Y33.569 E.03693
G1 X117.696 Y33.003 E.04291
G1 X118.968 Y32.795 E.04041
G1 X182.365 Y32.805 E1.98777
G1 X183.241 Y32.937 E.02778
G1 X184.116 Y33.232 E.02895
G1 X185.638 Y34.342 E.05906
G1 X186.228 Y35.122 E.03066
G1 X186.624 Y35.91 E.02765
G1 X186.928 Y37.34 E.04584
G1 X186.932 Y70.041 E1.02532
G1 X186.597 Y71.454 E.04553
G1 X185.866 Y72.706 E.04546
G1 X184.584 Y73.82 E.05325
G1 X182.964 Y74.431 E.05429
G1 X181.909 Y74.476 E.03311
G1 X181.879 Y75.44 E.03024
G1 X181.543 Y76.578 E.0372
G1 X180.954 Y77.595 E.03685
G1 X180.343 Y78.257 E.02825
G1 X179.653 Y78.783 E.0272
G1 X178.456 Y79.311 E.04102
G1 X177.199 Y79.514 E.03992
G1 X118.968 Y79.514 E1.82579
G1 X117.813 Y79.34 E.03662
G1 X116.714 Y78.897 E.03715
G1 X115.754 Y78.192 E.03734
G1 X114.998 Y77.289 E.03693
G1 X114.432 Y76.042 E.04294
G1 X114.224 Y74.771 E.04038
G1 X114.224 Y47.895 E.84268
G1 X114.602 Y47.895 F9000
G1 F1200
G1 X114.602 Y37.554 E.32423
G1 X114.767 Y36.463 E.0346
G1 X115.181 Y35.45 E.03431
G1 X115.835 Y34.568 E.03443
G1 X116.67 Y33.876 E.034
G1 X117.827 Y33.358 E.03975
G1 X118.983 Y33.172 E.03671
G1 X182.35 Y33.182 E1.98683
G1 X183.167 Y33.307 E.02591
G1 X183.966 Y33.58 E.02647
G1 X185.392 Y34.629 E.05551
G1 X185.915 Y35.333 E.0275
G1 X186.276 Y36.056 E.02534
G1 X186.555 Y37.398 E.04298
G1 X186.555 Y70.02 E1.02284
G1 X186.256 Y71.291 E.04094
G1 X185.593 Y72.444 E.0417
G1 X184.419 Y73.479 E.04907
G1 X182.861 Y74.067 E.05221
G1 X181.539 Y74.109 E.04147
G1 X181.51 Y75.359 E.0392
G1 X181.204 Y76.411 E.03435
G1 X180.661 Y77.356 E.03417
G1 X180.101 Y77.967 E.02599
G1 X179.443 Y78.469 E.02595
G1 X178.328 Y78.956 E.03815
G1 X177.185 Y79.137 E.03628
G1 X118.983 Y79.137 E1.82488
G1 X117.892 Y78.971 E.0346
G1 X116.879 Y78.557 E.03431
G1 X115.997 Y77.903 E.03443
G1 X115.305 Y77.068 E.034
G1 X114.787 Y75.911 E.03975
G1 X114.602 Y74.756 E.03668
G1 X114.602 Y47.955 E.84033
G1 X114.979 Y47.955 F9000
G1 F1200
G1 X114.979 Y37.567 E.32571
G1 X115.126 Y36.582 E.03123
G1 X115.499 Y35.655 E.03133
G1 X116.124 Y34.812 E.0329
G1 X116.889 Y34.184 E.03103
G1 X117.956 Y33.713 E.03657
G1 X118.997 Y33.549 E.03304
G1 X182.335 Y33.559 E1.98592
G1 X183.092 Y33.677 E.02402
G1 X183.815 Y33.926 E.02398
G1 X185.143 Y34.913 E.05188
G1 X185.601 Y35.541 E.02437
G1 X185.927 Y36.201 E.02308
G1 X186.182 Y37.454 E.04009
G1 X186.177 Y69.997 E1.02036
G1 X185.896 Y71.176 E.038
G1 X185.284 Y72.227 E.03813
G1 X184.198 Y73.172 E.04514
G1 X182.762 Y73.702 E.04799
G1 X181.167 Y73.739 E.05002
G1 X181.14 Y75.28 E.04832
G1 X180.865 Y76.245 E.03146
G1 X180.368 Y77.118 E.0315
G1 X179.858 Y77.678 E.02375
G1 X179.233 Y78.155 E.02465
G1 X178.201 Y78.6 E.03524
G1 X177.171 Y78.76 E.03268
G1 X118.996 Y78.76 E1.82404
G1 X118.011 Y78.613 E.03123
G1 X117.084 Y78.24 E.03133
G1 X116.241 Y77.614 E.03292
G1 X115.613 Y76.85 E.03101
G1 X115.142 Y75.782 E.0366
G1 X114.979 Y74.742 E.03301
G1 X114.979 Y48.015 E.83801
G1 X115.356 Y48.015 F9000
G1 F1200
G1 X115.356 Y37.582 E.32712
G1 X115.495 Y36.662 E.02917
G1 X115.838 Y35.82 E.02851
G1 X116.411 Y35.057 E.02992
G1 X117.105 Y34.494 E.02802
G1 X118.083 Y34.068 E.03345
G1 X119.011 Y33.927 E.02943
G1 X182.32 Y33.936 E1.98501
G1 X183.015 Y34.046 E.02206
G1 X183.662 Y34.272 E.02149
G1 X184.892 Y35.196 E.04824
G1 X185.284 Y35.746 E.02118
G1 X185.577 Y36.344 E.02088
G1 X185.808 Y37.509 E.03724
G1 X185.8 Y69.974 E1.01792
G1 X185.537 Y71.059 E.035
G1 X184.976 Y72.007 E.03454
G1 X183.98 Y72.862 E.04116
G1 X182.664 Y73.336 E.04386
G1 X180.797 Y73.367 E.05855
G1 X180.764 Y75.249 E.05902
G1 X180.525 Y76.079 E.02708
G1 X180.075 Y76.881 E.02883
G1 X179.592 Y77.411 E.02248
G1 X179.025 Y77.84 E.02229
G1 X178.076 Y78.243 E.03233
G1 X177.157 Y78.383 E.02915
G1 X119.011 Y78.383 E1.82313
G1 X118.091 Y78.244 E.02917
G1 X117.25 Y77.9 E.02849
G1 X116.487 Y77.327 E.02992
G1 X115.923 Y76.633 E.02804
G1 X115.498 Y75.655 E.03343
G1 X115.356 Y74.728 E.0294
G1 X115.356 Y48.075 E.83569
G1 X115.733 Y48.075 F9000
G1 F1200
G1 X115.733 Y37.595 E.32859
G1 X115.853 Y36.783 E.02574
G1 X116.178 Y35.986 E.02699
G1 X116.696 Y35.305 E.02683
G1 X117.32 Y34.805 E.02507
G1 X118.208 Y34.425 E.03028
G1 X119.024 Y34.304 E.02586
G1 X182.306 Y34.313 E1.98416
G1 X182.907 Y34.408 E.01908
G1 X183.51 Y34.619 E.02003
G1 X184.603 Y35.44 E.04286
G1 X184.953 Y35.927 E.0188
G1 X185.227 Y36.487 E.01955
G1 X185.435 Y37.562 E.03433
G1 X185.423 Y69.952 E1.01557
G1 X185.198 Y70.891 E.03028
G1 X184.667 Y71.788 E.03268
G1 X183.763 Y72.552 E.03711
G1 X182.627 Y72.96 E.03785
G1 X180.426 Y72.996 E.06902
G1 X180.387 Y75.217 E.06965
G1 X180.186 Y75.915 E.02277
G1 X179.78 Y76.644 E.02616
G1 X179.349 Y77.121 E.02016
G1 X178.816 Y77.525 E.02097
G1 X177.953 Y77.886 E.02933
G1 X177.143 Y78.006 E.02567
G1 X119.024 Y78.006 E1.82228
G1 X118.212 Y77.886 E.02574
G1 X117.416 Y77.561 E.02696
G1 X116.734 Y77.042 E.02687
G1 X116.234 Y76.418 E.02507
G1 X115.854 Y75.53 E.03028
G1 X115.733 Y74.714 E.02586
G1 X115.733 Y48.135 E.83337
G1 X116.11 Y48.135 F9000
G1 F1200
G1 X116.11 Y37.608 E.33007
G1 X116.211 Y36.903 E.02233
G1 X116.517 Y36.153 E.0254
G1 X116.98 Y35.555 E.02371
G1 X117.533 Y35.117 E.02212
G1 X118.331 Y34.782 E.02714
G1 X119.037 Y34.681 E.02236
G1 X182.29 Y34.69 E1.98325
G1 X183.357 Y34.964 E.03454
G1 X184.313 Y35.683 E.03751
G1 X184.637 Y36.133 E.01739
G1 X184.877 Y36.628 E.01725
G1 X185.058 Y37.58 E.03038
G1 X185.046 Y69.929 E1.01428
G1 X184.839 Y70.772 E.02722
G1 X184.362 Y71.565 E.02902
G1 X183.548 Y72.241 E.03318
G1 X182.59 Y72.583 E.03189
G1 X180.056 Y72.625 E.07946
G1 X180.011 Y75.184 E.08025
G1 X179.83 Y75.787 E.01974
G1 X179.486 Y76.408 E.02226
G1 X179.082 Y76.855 E.01889
G1 X178.61 Y77.208 E.01848
G1 X177.832 Y77.528 E.02638
G1 X177.13 Y77.629 E.02224
G1 X119.037 Y77.629 E1.82147
G1 X118.333 Y77.528 E.0223
G1 X117.582 Y77.221 E.02544
G1 X116.984 Y76.759 E.02369
G1 X116.546 Y76.205 E.02214
G1 X116.211 Y75.407 E.02714
G1 X116.11 Y74.701 E.02236
G1 X116.11 Y48.195 E.83108
G1 X116.487 Y48.195 F9000
G1 F1200
G1 X116.487 Y37.62 E.33157
G1 X116.569 Y37.024 E.01886
G1 X116.856 Y36.321 E.02381
G1 X117.261 Y35.807 E.02052
G1 X117.743 Y35.431 E.01917
G1 X118.451 Y35.14 E.024
G1 X119.05 Y35.058 E.01896
G1 X182.274 Y35.067 E1.98234
G1 X183.202 Y35.309 E.03007
G1 X184.025 Y35.928 E.03229
G1 X184.526 Y36.77 E.03072
G1 X184.681 Y37.597 E.02638
G1 X184.669 Y69.905 E1.01299
G1 X184.481 Y70.651 E.02412
G1 X184.058 Y71.339 E.02532
G1 X183.336 Y71.928 E.02922
G1 X182.554 Y72.207 E.02603
G1 X179.685 Y72.253 E.08997
G1 X179.634 Y75.149 E.09082
G1 X179.477 Y75.656 E.01664
G1 X179.19 Y76.173 E.01854
G1 X178.841 Y76.564 E.01643
G1 X178.404 Y76.891 E.01711
G1 X177.714 Y77.17 E.02334
G1 X177.118 Y77.252 E.01886
G1 X119.05 Y77.252 E1.82068
G1 X118.453 Y77.169 E.0189
G1 X117.75 Y76.883 E.0238
G1 X117.236 Y76.478 E.02052
G1 X116.86 Y75.995 E.01919
G1 X116.57 Y75.287 E.02399
G1 X116.487 Y74.689 E.01893
G1 X116.487 Y48.255 E.82882
G1 X116.864 Y48.255 F9000
G1 F1200
G1 X116.864 Y37.632 E.33308
G1 X116.928 Y37.14 E.01556
G1 X117.171 Y36.529 E.02062
G1 X117.512 Y36.089 E.01745
G1 X117.953 Y35.745 E.01754
G1 X118.568 Y35.5 E.02076
G1 X119.061 Y35.435 E.01559
G1 X182.258 Y35.444 E1.9815
G1 X183.045 Y35.653 E.02553
G1 X183.737 Y36.172 E.02712
G1 X183.989 Y36.52 E.01347
G1 X184.175 Y36.909 E.01352
G1 X184.304 Y37.613 E.02244
G1 X184.292 Y69.88 E1.01171
G1 X184.124 Y70.526 E.02093
G1 X183.756 Y71.112 E.0217
G1 X183.175 Y71.586 E.02351
G1 X182.514 Y71.83 E.02209
G1 X179.313 Y71.882 E.10038
G1 X179.265 Y75.066 E.09984
G1 X179.137 Y75.491 E.01392
G1 X178.871 Y75.97 E.01718
G1 X178.201 Y76.572 E.02824
G1 X177.599 Y76.81 E.0203
G1 X177.106 Y76.874 E.01559
G1 X119.061 Y76.874 E1.81996
G1 X118.569 Y76.81 E.01556
G1 X117.959 Y76.567 E.02059
G1 X117.518 Y76.227 E.01746
G1 X117.174 Y75.785 E.01756
G1 X116.929 Y75.171 E.02073
G1 X116.864 Y74.677 E.01562
