; generated by PrusaSlicer 2.8.1+win64 on 2025-08-18 at 03:29:48 UTC

; 

; external perimeters extrusion width = 0.42mm
; perimeters extrusion width = 0.44mm
; infill extrusion width = 0.44mm
; solid infill extrusion width = 0.44mm
; top infill extrusion width = 0.40mm
; first layer extrusion width = 0.42mm

; external perimeters extrusion width = 0.42mm
; perimeters extrusion width = 0.44mm
; infill extrusion width = 0.44mm
; solid infill extrusion width = 0.44mm
; top infill extrusion width = 0.40mm
; first layer extrusion width = 0.42mm

; external perimeters extrusion width = 0.42mm
; perimeters extrusion width = 0.44mm
; infill extrusion width = 0.44mm
; solid infill extrusion width = 0.44mm
; top infill extrusion width = 0.40mm
; first layer extrusion width = 0.42mm

; external perimeters extrusion width = 0.42mm
; perimeters extrusion width = 0.44mm
; infill extrusion width = 0.44mm
; solid infill extrusion width = 0.44mm
; top infill extrusion width = 0.40mm
; first layer extrusion width = 0.42mm

M201 X500 Y500 Z100 E1000 ; sets maximum accelerations, mm/sec^2
M203 X500 Y500 Z5 E60 ; sets maximum feedrates, mm / sec
M204 S500 T1000 ; sets acceleration (S) and retract acceleration (R), mm/sec^2
M205 X8.00 Y8.00 Z0.40 E5.00 ; sets the jerk limits, mm/sec
M205 S0 T0 ; sets the minimum extruding and travel feed rate, mm/sec

; printing object Top_V2.4.STL id:3 copy 0
; stop printing object Top_V2.4.STL id:3 copy 0
; printing object Top_1mm.STL id:1 copy 0
; stop printing object Top_1mm.STL id:1 copy 0
; printing object Top_1.5mm.STL id:0 copy 0
; stop printing object Top_1.5mm.STL id:0 copy 0
; printing object Top_Friction.STL id:2 copy 0
; stop printing object Top_Friction.STL id:2 copy 0

;TYPE:Custom
G90 ; use absolute coordinates
M83 ; extruder relative mode
M104 S150 ; set temporary nozzle temp to prevent oozing during homing
M140 S60 ; set final bed temp
G4 S30 ; allow partial nozzle warmup
G28 ; home all axis
G1 Z50 F240
G1 X2.0 Y10 F3000
M104 S215 ; set final nozzle temp
M190 S60 ; wait for bed temp to stabilize
M109 S215 ; wait for nozzle temp to stabilize
G1 Z0.28 F240
G92 E0
G1 X2.0 Y140 E10 F1500 ; prime the nozzle
G1 X2.3 Y140 F5000
G92 E0
G1 X2.3 Y10 E10 F1200 ; prime the nozzle
G92 E0
G21 ; set units to millimeters
G90 ; use absolute coordinates
M83 ; use relative distances for extrusion
; Filament gcode
M107
;LAYER_CHANGE
;Z:0.2
;HEIGHT:0.2
G1 E-4 F3600
G1 Z.2 F9000
G1 X30.584 Y46.804
G1 Z.2
G1 E4 F2400
M204 S500
;TYPE:Skirt/Brim
;WIDTH:0.42
G1 F1200
G1 X32.08 Y46.042 E.05264
G1 X34.648 Y45.089 E.08588
G1 X36.165 Y44.715 E.04899
G1 X37.823 Y44.452 E.05264
G1 X39.68 Y44.339 E.05833
G1 X107.276 Y44.339 E2.11943
G1 X183.584 Y44.688 E2.39261
G1 X185.426 Y44.801 E.05786
G1 X187.084 Y45.063 E.05263
G1 X188.601 Y45.438 E.049
G1 X191.17 Y46.391 E.08591
G1 X192.665 Y47.153 E.05261
G1 X194.945 Y48.67 E.08587
G1 X196.14 Y49.677 E.049
G1 X197.327 Y50.865 E.05266
G1 X199.027 Y53.013 E.08589
G1 X199.852 Y54.339 E.04897
G1 X200.509 Y55.608 E.0448
G1 X201.116 Y57.047 E.04897
G1 X201.567 Y58.404 E.04484
G1 X201.941 Y59.921 E.04899
G1 X202.175 Y61.33 E.04478
G1 X202.315 Y63.31 E.06224
G1 X202.629 Y111.077 E1.49773
G1 X202.603 Y151.893 E1.27976
G1 X202.302 Y154.448 E.08066
G1 X201.879 Y156.211 E.05685
G1 X200.926 Y158.779 E.08588
G1 X200.164 Y160.275 E.05264
G1 X198.646 Y162.556 E.08591
G1 X197.639 Y163.75 E.04897
G1 X196.451 Y164.937 E.05266
G1 X194.304 Y166.637 E.08587
G1 X192.977 Y167.461 E.04898
G1 X191.709 Y168.119 E.04479
G1 X190.269 Y168.726 E.049
G1 X188.912 Y169.177 E.04484
G1 X187.395 Y169.551 E.04899
G1 X185.986 Y169.784 E.04478
G1 X184.006 Y169.924 E.06224
G1 X108.218 Y171.344 E2.3767
G1 X41.952 Y171.342 E2.07772
G1 X39.972 Y171.202 E.06224
G1 X37.287 Y170.662 E.08587
G1 X35.689 Y170.143 E.05268
G1 X33.199 Y169.001 E.08589
G1 X31.654 Y168.054 E.05682
G1 X29.507 Y166.355 E.08585
G1 X28.319 Y165.167 E.05268
G1 X26.619 Y163.019 E.08589
G1 X25.794 Y161.692 E.04899
G1 X25.137 Y160.424 E.04478
G1 X24.53 Y158.984 E.049
G1 X24.011 Y157.387 E.05265
G1 X23.656 Y155.866 E.04897
G1 X22.363 Y147.078 E.27851
G1 X19.932 Y97.191 E1.56603
G1 X19.965 Y68.605 E.89629
G1 X21.259 Y59.817 E.27851
G1 X21.614 Y58.296 E.04897
G1 X22.133 Y56.699 E.05265
G1 X22.74 Y55.259 E.049
G1 X23.397 Y53.991 E.04478
G1 X24.222 Y52.664 E.04899
G1 X25.922 Y50.516 E.08589
G1 X27.109 Y49.329 E.05263
G1 X28.304 Y48.322 E.049
G1 X30.534 Y46.837 E.084
G1 E-2.8 F3600
;WIPE_START
G1 F7200
G1 X30.584 Y46.804 E-.02846
G1 X32.08 Y46.042 E-.79747
G1 X32.818 Y45.768 E-.37407
;WIPE_END
G1 X32.511 Y49.948 F9000
G1 E4 F2400
G1 F1200
G1 X35.774 Y48.594 E.11077
G1 X39.295 Y48.017 E.11187
G1 X82.438 Y48.01 E1.35272
G1 X86.254 Y48.859 E.12257
G1 X86.644 Y49.014 E.01316
G1 X95.804 Y49.01 E.28721
G1 X96.187 Y48.859 E.01291
G1 X100.005 Y48.01 E.12263
G1 X107.459 Y48.011 E.23371
G1 X110.513 Y48.427 E.09664
G1 X111.92 Y48.886 E.0464
G1 X115.181 Y48.359 E.10357
G1 X158.246 Y48.359 E1.35027
G1 X162.059 Y49.207 E.12247
G1 X162.46 Y49.365 E.01351
G1 X172.112 Y49.359 E.30263
G1 X172.495 Y49.208 E.01291
G1 X176.312 Y48.359 E.1226
G1 X183.744 Y48.361 E.23303
G1 X186.394 Y48.68 E.08369
G1 X188.973 Y49.42 E.08413
G1 X194.58 Y53.285 E.21352
G1 X197.049 Y56.88 E.13674
G1 X198.181 Y59.974 E.1033
G1 X198.646 Y63.188 E.10182
G1 X198.646 Y67.757 E.14326
G1 X198.414 Y69.964 E.06958
G1 X197.646 Y72.138 E.07229
G1 X197.646 Y94.757 E.7092
G1 X198.295 Y96.499 E.05829
G1 X198.624 Y98.837 E.07403
G1 X198.615 Y104.211 E.1685
G1 X198.206 Y106.685 E.07862
G1 X198.958 Y110.733 E.12909
G1 X198.958 Y115.419 E.14693
G1 X198.725 Y117.626 E.06958
G1 X197.958 Y119.8 E.07228
G1 X197.958 Y142.4 E.70861
G1 X198.577 Y144.046 E.05514
G1 X198.925 Y146.346 E.07294
G1 X198.949 Y151.586 E.1643
G1 X198.387 Y155.038 E.10966
G1 X197.067 Y158.287 E.10996
G1 X193.736 Y162.449 E.16714
G1 X191.403 Y164.121 E.09
G1 X188.813 Y165.351 E.0899
G1 X184.212 Y166.256 E.14703
G1 X116.551 Y166.256 E2.12146
G1 X114.68 Y165.993 E.05924
G1 X112.529 Y166.947 E.07378
G1 X108.504 Y167.673 E.12824
G1 X41.84 Y167.673 E2.0902
G1 X38.494 Y167.176 E.10606
G1 X35.342 Y165.972 E.10579
G1 X32.549 Y164.126 E.10497
G1 X30.203 Y161.707 E.10566
G1 X28.078 Y157.962 E.13501
G1 X27.084 Y153.807 E.13395
G1 X27.011 Y145.747 E.25273
G1 X26.85 Y145.34 E.01372
G1 X26 Y141.523 E.12261
G1 X26 Y123.588 E.56234
G1 X26.85 Y119.771 E.12261
G1 X27.005 Y119.38 E.01319
G1 X27.016 Y112.035 E.2303
G1 X27.128 Y111.244 E.02505
G1 X26.781 Y110.746 E.01903
G1 X25.113 Y106.829 E.13349
G1 X24.606 Y103.502 E.10552
G1 X24.604 Y96.295 E.22597
G1 X24.452 Y95.912 E.01292
G1 X23.603 Y92.095 E.1226
G1 X23.603 Y74.16 E.56234
G1 X24.453 Y70.342 E.12264
G1 X24.614 Y69.938 E.01364
G1 X24.665 Y62.056 E.24714
G1 X25.512 Y58.177 E.12449
G1 X27.311 Y54.661 E.12383
G1 X29.636 Y52.005 E.11068
G1 X32.462 Y49.983 E.10895
G1 X32.462 Y49.983 F9000
G1 X32.681 Y50.29
G1 F1200
G1 X32.712 Y50.267 E.00121
G1 X35.897 Y48.951 E.10805
G1 X39.34 Y48.392 E.10937
G1 X82.417 Y48.387 E1.35065
G1 X86.156 Y49.223 E.12013
G1 X86.571 Y49.391 E.01404
G1 X95.878 Y49.387 E.29181
G1 X96.285 Y49.223 E.01376
G1 X100.025 Y48.387 E.12016
G1 X107.446 Y48.388 E.23268
G1 X110.444 Y48.798 E.09488
G1 X111.89 Y49.273 E.04772
G1 X115.196 Y48.736 E.10502
G1 X158.225 Y48.736 E1.34914
G1 X161.961 Y49.571 E.12003
G1 X162.386 Y49.742 E.01436
G1 X172.186 Y49.736 E.30727
G1 X172.593 Y49.572 E.01376
G1 X176.333 Y48.736 E.12016
G1 X183.71 Y48.736 E.2313
G1 X186.305 Y49.047 E.08195
G1 X188.839 Y49.774 E.08266
G1 X194.29 Y53.527 E.2075
G1 X196.703 Y57.033 E.13345
G1 X197.811 Y60.047 E.10069
G1 X198.269 Y63.202 E.09996
G1 X198.269 Y67.747 E.14251
G1 X198.041 Y69.902 E.06795
G1 X197.269 Y72.073 E.07225
G1 X197.269 Y94.826 E.7134
G1 X197.924 Y96.572 E.05847
G1 X198.248 Y98.876 E.07295
G1 X198.238 Y104.195 E.16677
G1 X197.818 Y106.719 E.08023
G1 X198.581 Y110.75 E.12863
G1 X198.581 Y115.409 E.14608
G1 X198.353 Y117.564 E.06795
G1 X197.581 Y119.735 E.07225
G1 X197.581 Y142.47 E.71284
G1 X198.207 Y144.122 E.05539
G1 X198.55 Y146.389 E.07189
G1 X198.572 Y151.572 E.16251
G1 X198.018 Y154.956 E.10752
G1 X196.728 Y158.119 E.1071
G1 X193.495 Y162.158 E.16221
G1 X191.226 Y163.788 E.0876
G1 X188.672 Y165 E.08864
G1 X184.194 Y165.879 E.14308
G1 X116.565 Y165.879 E2.12046
G1 X114.626 Y165.604 E.0614
G1 X112.439 Y166.58 E.07509
G1 X108.487 Y167.296 E.12593
G1 X41.854 Y167.296 E2.08923
G1 X38.609 Y166.816 E.10285
G1 X35.532 Y165.646 E.10322
G1 X32.774 Y163.823 E.10366
G1 X30.491 Y161.462 E.10298
G1 X28.439 Y157.848 E.13031
G1 X27.461 Y153.782 E.13112
G1 X27.388 Y145.671 E.25433
G1 X27.214 Y145.242 E.01452
G1 X26.377 Y141.502 E.12017
G1 X26.377 Y123.609 E.56102
G1 X27.214 Y119.869 E.12017
G1 X27.382 Y119.454 E.01404
G1 X27.393 Y112.049 E.23218
G1 X27.523 Y111.149 E.02851
G1 X27.12 Y110.579 E.02189
G1 X25.482 Y106.748 E.13064
G1 X24.983 Y103.487 E.10344
G1 X24.981 Y96.221 E.22782
G1 X24.817 Y95.814 E.01376
G1 X23.98 Y92.074 E.12017
G1 X23.98 Y74.181 E.56102
G1 X24.817 Y70.44 E.1202
G1 X24.99 Y70.013 E.01445
G1 X25.042 Y62.078 E.2488
G1 X25.875 Y58.282 E.12185
G1 X27.635 Y54.854 E.12082
G1 X29.905 Y52.27 E.10784
G1 X32.632 Y50.325 E.10502
G1 X32.632 Y50.325 F9000
G1 X32.85 Y50.632
G1 F1200
G1 X32.913 Y50.587 E.00243
G1 X36.02 Y49.308 E.10535
G1 X39.385 Y48.766 E.10687
G1 X82.396 Y48.764 E1.34858
G1 X86.057 Y49.588 E.11766
G1 X86.496 Y49.768 E.01488
G1 X95.953 Y49.764 E.29652
G1 X96.384 Y49.588 E.0146
G1 X100.046 Y48.764 E.11769
G1 X107.433 Y48.765 E.23161
G1 X110.376 Y49.169 E.09314
G1 X111.859 Y49.66 E.04898
G1 X115.211 Y49.113 E.10649
G1 X158.204 Y49.113 E1.34802
G1 X161.862 Y49.936 E.11756
G1 X162.312 Y50.119 E.01523
G1 X172.261 Y50.113 E.31194
G1 X172.692 Y49.936 E.01461
G1 X176.354 Y49.113 E.11768
G1 X183.699 Y49.113 E.2303
G1 X186.245 Y49.419 E.0804
G1 X188.705 Y50.128 E.08027
G1 X193.999 Y53.77 E.20148
G1 X196.358 Y57.186 E.13016
G1 X197.44 Y60.122 E.09811
G1 X197.892 Y63.216 E.09804
G1 X197.892 Y67.737 E.14175
G1 X197.668 Y69.839 E.06628
G1 X196.892 Y72.007 E.0722
G1 X196.892 Y94.895 E.71764
G1 X197.554 Y96.645 E.05866
G1 X197.873 Y98.916 E.0719
G1 X197.861 Y104.179 E.16502
G1 X197.43 Y106.755 E.08189
G1 X197.55 Y107.09 E.01116
G1 X198.204 Y110.767 E.1171
G1 X198.204 Y115.399 E.14523
G1 X197.98 Y117.501 E.06628
G1 X197.204 Y119.669 E.0722
G1 X197.204 Y142.539 E.71707
G1 X197.837 Y144.199 E.0557
G1 X198.175 Y146.432 E.07081
G1 X198.195 Y151.558 E.16072
G1 X197.661 Y154.833 E.10404
G1 X196.389 Y157.952 E.10561
G1 X193.254 Y161.867 E.15726
G1 X191.02 Y163.472 E.08625
G1 X188.532 Y164.649 E.0863
G1 X184.176 Y165.502 E.13917
G1 X116.578 Y165.502 E2.11949
G1 X114.571 Y165.215 E.06357
G1 X112.349 Y166.213 E.07637
G1 X108.47 Y166.919 E.12362
G1 X41.868 Y166.919 E2.08826
G1 X38.685 Y166.446 E.1009
G1 X35.686 Y165.301 E.10065
G1 X33 Y163.52 E.10105
G1 X30.779 Y161.217 E.10032
G1 X28.78 Y157.685 E.12725
G1 X27.838 Y153.758 E.12662
G1 X27.764 Y145.594 E.25599
G1 X27.578 Y145.143 E.0153
G1 X26.755 Y141.481 E.11768
G1 X26.755 Y123.63 E.55971
G1 X27.578 Y119.968 E.11768
G1 X27.759 Y119.53 E.01486
G1 X27.77 Y112.063 E.23412
G1 X27.918 Y111.052 E.03204
G1 X27.458 Y110.411 E.02474
G1 X25.851 Y106.667 E.12775
G1 X25.36 Y103.473 E.10132
G1 X25.358 Y96.146 E.22973
G1 X25.181 Y95.715 E.01461
G1 X24.357 Y92.053 E.11769
G1 X24.357 Y74.202 E.55971
G1 X25.181 Y70.539 E.11772
G1 X25.367 Y70.09 E.01524
G1 X25.419 Y62.101 E.25049
G1 X26.238 Y58.387 E.11925
G1 X27.96 Y55.048 E.11779
G1 X30.173 Y52.536 E.10497
G1 X32.802 Y50.666 E.10116
G1 X32.802 Y50.666 F9000
G1 X33.018 Y50.97
G1 F1200
G1 X33.076 Y50.928 E.00225
G1 X36.144 Y49.665 E.10403
G1 X39.43 Y49.141 E.10433
G1 X82.375 Y49.141 E1.34651
G1 X85.957 Y49.952 E.11515
G1 X86.419 Y50.145 E.0157
G1 X96.03 Y50.142 E.30135
G1 X96.484 Y49.952 E.01543
G1 X100.068 Y49.141 E.11521
G1 X107.42 Y49.142 E.23052
G1 X110.307 Y49.54 E.09138
G1 X111.828 Y50.047 E.05027
G1 X115.227 Y49.49 E.10799
G1 X158.183 Y49.49 E1.34686
G1 X161.763 Y50.3 E.11509
G1 X162.236 Y50.497 E.01607
G1 X172.337 Y50.49 E.31671
G1 X172.792 Y50.3 E.01546
G1 X176.375 Y49.49 E.11518
G1 X183.687 Y49.491 E.22926
G1 X186.184 Y49.792 E.07886
G1 X188.572 Y50.482 E.07794
G1 X193.709 Y54.013 E.19545
G1 X196.013 Y57.339 E.12686
G1 X197.07 Y60.196 E.09551
G1 X197.515 Y63.229 E.09612
G1 X197.515 Y67.726 E.141
G1 X197.296 Y69.776 E.06464
G1 X196.515 Y71.941 E.07216
G1 X196.515 Y94.965 E.7219
G1 X197.183 Y96.719 E.05885
G1 X197.498 Y98.955 E.0708
G1 X197.484 Y104.162 E.16326
G1 X197.041 Y106.793 E.08365
G1 X197.182 Y107.174 E.01274
G1 X197.826 Y110.783 E.11495
G1 X197.826 Y115.389 E.14442
G1 X197.608 Y117.438 E.06461
G1 X196.826 Y119.603 E.07217
G1 X196.826 Y142.61 E.72137
G1 X197.468 Y144.276 E.05598
G1 X197.8 Y146.474 E.0697
G1 X197.818 Y151.543 E.15894
G1 X197.292 Y154.751 E.10193
G1 X196.05 Y157.784 E.10276
G1 X193.013 Y161.576 E.15233
G1 X190.814 Y163.155 E.08488
G1 X188.392 Y164.298 E.08397
G1 X184.158 Y165.125 E.13526
G1 X116.592 Y165.125 E2.11848
G1 X114.515 Y164.826 E.06579
G1 X112.258 Y165.846 E.07766
G1 X108.453 Y166.542 E.12128
G1 X41.881 Y166.542 E2.08732
G1 X38.8 Y166.086 E.09765
G1 X35.84 Y164.956 E.09934
G1 X33.226 Y163.218 E.09842
G1 X31.067 Y160.973 E.09766
G1 X29.14 Y157.571 E.12259
G1 X28.215 Y153.733 E.12378
G1 X28.141 Y145.516 E.25765
G1 X27.942 Y145.043 E.01609
G1 X27.132 Y141.46 E.11518
G1 X27.132 Y123.651 E.55839
G1 X27.942 Y120.068 E.11518
G1 X28.136 Y119.606 E.01571
G1 X28.147 Y112.078 E.23604
G1 X28.314 Y110.954 E.03563
G1 X27.796 Y110.241 E.02763
G1 X26.22 Y106.585 E.12483
G1 X25.737 Y103.458 E.09921
G1 X25.735 Y96.07 E.23165
G1 X25.545 Y95.615 E.01546
G1 X24.734 Y92.032 E.11518
G1 X24.734 Y74.223 E.55839
G1 X25.545 Y70.639 E.11521
G1 X25.743 Y70.167 E.01605
G1 X25.796 Y62.123 E.25222
G1 X26.584 Y58.538 E.11509
G1 X28.258 Y55.279 E.11488
G1 X30.41 Y52.83 E.10222
G1 X32.969 Y51.004 E.09857
G1 X32.969 Y51.004 F9000
G1 X33.185 Y51.307
G1 F1200
G1 X33.241 Y51.268 E.00214
G1 X36.225 Y50.034 E.10125
G1 X39.445 Y49.518 E.10225
G1 X82.354 Y49.518 E1.34538
G1 X85.856 Y50.315 E.11261
G1 X86.342 Y50.522 E.01656
G1 X96.107 Y50.519 E.30617
G1 X96.585 Y50.315 E.0163
G1 X100.089 Y49.518 E.11267
G1 X107.407 Y49.519 E.22945
G1 X110.237 Y49.911 E.08958
G1 X111.841 Y50.45 E.05306
G1 X115.241 Y49.867 E.10816
G1 X158.162 Y49.867 E1.34576
G1 X161.662 Y50.664 E.11255
G1 X162.159 Y50.874 E.01692
G1 X172.415 Y50.867 E.32157
G1 X172.893 Y50.664 E.01628
G1 X176.397 Y49.867 E.11267
G1 X183.676 Y49.868 E.22823
G1 X186.094 Y50.158 E.07636
G1 X188.438 Y50.836 E.07651
G1 X193.419 Y54.256 E.18945
G1 X195.667 Y57.492 E.12354
G1 X196.71 Y60.308 E.09416
G1 X197.138 Y63.243 E.093
G1 X197.138 Y67.716 E.14025
G1 X196.923 Y69.713 E.06298
G1 X196.138 Y71.874 E.07209
G1 X196.138 Y95.035 E.7262
G1 X196.813 Y96.793 E.05904
G1 X197.123 Y98.994 E.06969
G1 X197.107 Y104.145 E.16151
G1 X196.652 Y106.832 E.08545
G1 X196.815 Y107.259 E.01433
G1 X197.449 Y110.8 E.11279
G1 X197.449 Y115.378 E.14354
G1 X197.235 Y117.375 E.06297
G1 X196.449 Y119.536 E.0721
G1 X196.449 Y142.681 E.7257
G1 X197.098 Y144.353 E.05624
G1 X197.425 Y146.517 E.06862
G1 X197.441 Y151.529 E.15715
G1 X196.924 Y154.669 E.09978
G1 X195.712 Y157.615 E.09988
G1 X192.772 Y161.285 E.14744
G1 X190.637 Y162.822 E.08248
G1 X188.253 Y163.947 E.08265
G1 X184.14 Y164.747 E.13138
G1 X116.605 Y164.747 E2.11751
G1 X114.46 Y164.437 E.06795
G1 X112.167 Y165.48 E.07898
G1 X108.436 Y166.165 E.11894
G1 X41.895 Y166.165 E2.08635
G1 X38.876 Y165.716 E.0957
G1 X35.995 Y164.612 E.09674
G1 X33.452 Y162.916 E.09584
G1 X31.356 Y160.73 E.09496
G1 X29.482 Y157.409 E.11956
G1 X28.592 Y153.708 E.11935
G1 X28.517 Y145.437 E.25934
G1 X28.306 Y144.942 E.01687
G1 X27.509 Y141.439 E.11264
G1 X27.509 Y123.673 E.55704
G1 X28.306 Y120.169 E.11267
G1 X28.513 Y119.684 E.01653
G1 X28.524 Y112.092 E.23804
G1 X28.71 Y110.856 E.03919
G1 X28.133 Y110.072 E.03052
G1 X26.589 Y106.503 E.12193
G1 X26.114 Y103.444 E.09706
G1 X26.112 Y95.992 E.23365
G1 X25.909 Y95.514 E.01628
G1 X25.112 Y92.011 E.11264
G1 X25.112 Y74.244 E.55707
G1 X25.909 Y70.74 E.11267
G1 X26.12 Y70.246 E.01684
G1 X26.173 Y62.145 E.25401
G1 X26.947 Y58.643 E.11245
