; generated by PrusaSlicer 2.9.2 on 2025-08-19 at 16:28:30 UTC

; 

; external perimeters extrusion width = 0.42mm
; perimeters extrusion width = 0.44mm
; infill extrusion width = 0.44mm
; solid infill extrusion width = 0.44mm
; top infill extrusion width = 0.40mm
; first layer extrusion width = 0.42mm

; external perimeters extrusion width = 0.42mm
; perimeters extrusion width = 0.44mm
; infill extrusion width = 0.44mm
; solid infill extrusion width = 0.44mm
; top infill extrusion width = 0.40mm
; first layer extrusion width = 0.42mm

M201 X500 Y500 Z100 E1000 ; sets maximum accelerations, mm/sec^2
M203 X500 Y500 Z5 E60 ; sets maximum feedrates, mm / sec
M204 S500 T1000 ; sets acceleration (S) and retract acceleration (R), mm/sec^2
M205 X8.00 Y8.00 Z0.40 E5.00 ; sets the jerk limits, mm/sec
M205 S0 T0 ; sets the minimum extruding and travel feed rate, mm/sec

; printing object Top_1mm.STL id:1 copy 0
; stop printing object Top_1mm.STL id:1 copy 0
; printing object Top_1.5mm.STL id:0 copy 0
; stop printing object Top_1.5mm.STL id:0 copy 0

;TYPE:Custom
G90 ; use absolute coordinates
M83 ; extruder relative mode
M104 S150 ; set temporary nozzle temp to prevent oozing during homing
M140 S60 ; set final bed temp
G4 S30 ; allow partial nozzle warmup
G28 ; home all axis
G1 Z50 F240
G1 X2.0 Y10 F3000
M104 S215 ; set final nozzle temp
M190 S60 ; wait for bed temp to stabilize
M109 S215 ; wait for nozzle temp to stabilize
G1 Z0.28 F240
G92 E0
G1 X2.0 Y140 E10 F1500 ; prime the nozzle
G1 X2.3 Y140 F5000
G92 E0
G1 X2.3 Y10 E10 F1200 ; prime the nozzle
G92 E0
G21 ; set units to millimeters
G90 ; use absolute coordinates
M83 ; use relative distances for extrusion
; Filament gcode
M107
;LAYER_CHANGE
;Z:0.2
;HEIGHT:0.2
G1 E-4 F3600
G1 Z.2 F9000
G1 X80.986 Y57.326
G1 Z.2
G1 E4 F2400
M204 S500
;TYPE:Skirt/Brim
;WIDTH:0.42
G1 F1200
G1 X81.73 Y56.447 E.03611
G1 X82.354 Y55.987 E.02431
G1 X83.409 Y55.538 E.03595
G1 X84.485 Y55.393 E.03404
G1 X151.235 Y55.403 E2.0929
G1 X152.023 Y55.528 E.02502
G1 X152.636 Y55.739 E.02033
G1 X153.584 Y56.315 E.03478
G1 X154.07 Y56.777 E.02102
G1 X154.472 Y57.307 E.02086
G1 X154.823 Y57.992 E.02413
G1 X155.021 Y58.63 E.02095
G1 X155.122 Y59.452 E.02597
G1 X156.353 Y108.744 E1.546
G1 X156.353 Y148.244 E1.23849
G1 X156.218 Y149.282 E.03282
G1 X156.008 Y149.892 E.02023
G1 X155.708 Y150.458 E.02009
G1 X154.957 Y151.34 E.03632
G1 X154.312 Y151.809 E.025
G1 X153.252 Y152.248 E.03597
G1 X152.214 Y152.382 E.03282
G1 X85.214 Y152.382 E2.10074
G1 X84.177 Y152.248 E.03278
G1 X83.563 Y152.036 E.02037
G1 X82.99 Y151.731 E.02035
G1 X82.475 Y151.342 E.02024
G1 X81.749 Y150.5 E.03486
G1 X81.438 Y149.93 E.02036
G1 X81.185 Y149.174 E.025
G1 X80.076 Y136.491 E.39918
G1 X79.346 Y87.279 E1.54318
G1 X79.346 Y71.332 E.50001
G1 X80.369 Y59.114 E.38443
G1 X80.635 Y58.018 E.03536
G1 X80.959 Y57.379 E.02246
G1 E-2.8 F3600
;WIPE_START
G1 F7200
G1 X80.986 Y57.326 E-.02825
G1 X81.73 Y56.447 E-.54701
G1 X82.354 Y55.987 E-.36823
G1 X82.851 Y55.776 E-.25651
;WIPE_END
; printing object Top_1.5mm.STL id:0 copy 0
G1 X91.481 Y125.14 F9000
G1 E4 F2400
;TYPE:Perimeter
;WIDTH:0.419999
G1 F1200
G1 X91.704 Y125.284 E.00832
G1 X92.21 Y125.751 E.02159
G1 X92.631 Y126.296 E.02159
G1 X92.953 Y126.905 E.0216
G1 X93.168 Y127.56 E.02162
G1 X93.269 Y128.241 E.02159
G1 X93.253 Y128.93 E.02161
G1 X93.121 Y129.606 E.0216
G1 X92.877 Y130.251 E.02162
G1 X92.527 Y130.844 E.02159
G1 X92.082 Y131.37 E.0216
G1 X91.555 Y131.814 E.02161
G1 X90.96 Y132.161 E.0216
G1 X90.315 Y132.404 E.02161
G1 X89.641 Y132.533 E.02152
G1 X89.104 Y132.547 E.01684
G1 X88.788 Y132.533 E.00992
G1 X88.268 Y132.444 E.01654
G1 X87.614 Y132.227 E.0216
G1 X87.006 Y131.903 E.0216
G1 X86.462 Y131.481 E.02159
G1 X85.997 Y130.973 E.02159
G1 X85.624 Y130.393 E.02162
G1 X85.355 Y129.759 E.02159
G1 X85.196 Y129.089 E.02159
G1 X85.153 Y128.401 E.02161
G1 X85.228 Y127.716 E.02161
G1 X85.416 Y127.054 E.02158
G1 X85.714 Y126.432 E.02163
G1 X86.113 Y125.871 E.02158
G1 X86.601 Y125.384 E.02162
G1 X87.164 Y124.987 E.0216
G1 X87.786 Y124.691 E.0216
G1 X88.449 Y124.504 E.0216
G1 X89.075 Y124.438 E.01974
G1 X89.806 Y124.476 E.02295
G1 X90.492 Y124.638 E.0221
G1 X91.125 Y124.909 E.02159
G1 X91.431 Y125.107 E.01143
G1 X91.271 Y125.451 F9000
G1 F1200
G1 X91.492 Y125.596 E.00829
G1 X91.949 Y126.023 E.01961
G1 X92.328 Y126.521 E.01962
G1 X92.616 Y127.075 E.01958
G1 X92.807 Y127.67 E.01959
G1 X92.895 Y128.289 E.0196
G1 X92.876 Y128.914 E.01961
G1 X92.752 Y129.527 E.01961
G1 X92.527 Y130.11 E.01959
G1 X92.206 Y130.647 E.01962
G1 X91.799 Y131.121 E.01959
G1 X91.318 Y131.52 E.01959
G1 X90.776 Y131.832 E.01961
G1 X90.19 Y132.048 E.01958
G1 X89.577 Y132.161 E.01954
G1 X88.947 Y132.17 E.01976
G1 X88.332 Y132.072 E.01953
G1 X87.74 Y131.872 E.01959
G1 X87.19 Y131.574 E.01961
G1 X86.699 Y131.188 E.01958
G1 X86.28 Y130.724 E.0196
G1 X85.945 Y130.196 E.01961
G1 X85.705 Y129.619 E.01959
G1 X85.565 Y129.009 E.01962
G1 X85.53 Y128.385 E.0196
G1 X85.602 Y127.764 E.0196
G1 X85.777 Y127.164 E.0196
G1 X86.051 Y126.602 E.0196
G1 X86.416 Y126.095 E.01959
G1 X86.862 Y125.656 E.01962
G1 X87.375 Y125.3 E.01958
G1 X87.941 Y125.035 E.0196
G1 X88.544 Y124.869 E.01961
G1 X89.107 Y124.813 E.01774
G1 X89.78 Y124.852 E.02114
G1 X90.397 Y125.003 E.01992
G1 X90.97 Y125.253 E.0196
G1 X91.221 Y125.418 E.00942
G1 X91.061 Y125.761 F9000
;TYPE:External perimeter
G1 F1200
G1 X91.281 Y125.909 E.00831
G1 X91.688 Y126.295 E.01759
G1 X92.024 Y126.745 E.01761
G1 X92.28 Y127.245 E.01761
G1 X92.447 Y127.781 E.0176
G1 X92.521 Y128.337 E.01759
G1 X92.499 Y128.898 E.0176
G1 X92.384 Y129.448 E.01762
G1 X92.177 Y129.969 E.01758
G1 X91.885 Y130.449 E.01762
G1 X91.516 Y130.872 E.0176
G1 X91.081 Y131.227 E.0176
G1 X90.592 Y131.503 E.01761
G1 X90.064 Y131.693 E.01759
G1 X89.514 Y131.79 E.01751
G1 X88.947 Y131.792 E.01778
G1 X88.396 Y131.701 E.01751
G1 X87.866 Y131.516 E.0176
G1 X87.374 Y131.245 E.01761
G1 X86.936 Y130.894 E.0176
G1 X86.563 Y130.475 E.01759
G1 X86.266 Y129.998 E.01762
G1 X86.054 Y129.478 E.01761
G1 X85.934 Y128.93 E.01759
G1 X85.907 Y128.369 E.01761
G1 X85.976 Y127.812 E.0176
G1 X86.137 Y127.274 E.01761
G1 X86.388 Y126.772 E.0176
G1 X86.719 Y126.319 E.01759
G1 X87.123 Y125.929 E.01761
G1 X87.586 Y125.612 E.01759
G1 X88.097 Y125.378 E.01762
G1 X88.639 Y125.234 E.01758
G1 X89.139 Y125.189 E.01574
G1 X89.755 Y125.229 E.01935
G1 X90.302 Y125.368 E.0177
G1 X90.815 Y125.596 E.0176
G1 X91.011 Y125.728 E.00741
G1 E-2.8 F3600
;WIPE_START
G1 F7200
G1 X91.061 Y125.761 E-.02846
G1 X91.281 Y125.909 E-.12595
G1 X91.688 Y126.295 E-.26644
G1 X92.024 Y126.745 E-.26676
G1 X92.28 Y127.245 E-.26682
G1 X92.433 Y127.738 E-.24557
;WIPE_END
G1 X85.038 Y121.323 F9000
G1 E4 F2400
;TYPE:Perimeter
G1 F1200
G1 X85.121 Y121.255 E.00336
G1 X85.27 Y120.992 E.00948
G1 X85.329 Y120.665 E.01042
G1 X85.329 Y108.858 E.3702
G1 X125.6 Y108.858 E1.26267
G1 X125.6 Y108.915 E.00179
G1 X125.737 Y109.404 E.01592
G1 X126.051 Y109.719 E.01395
G1 X126.543 Y109.858 E.01603
G1 X128.85 Y109.858 E.07233
G1 X128.85 Y111.13 E.03988
G1 X117.343 Y111.13 E.36079
G1 X116.98 Y111.202 E.0116
G1 X116.693 Y111.39 E.01076
G1 X116.511 Y111.629 E.00942
G1 X116.423 Y111.865 E.0079
G1 X116.4 Y112.072 E.00653
G1 X116.4 Y113.315 E.03897
G1 X116.409 Y113.447 E.00415
G1 X116.496 Y113.729 E.00925
G1 X116.691 Y113.996 E.01037
G1 X116.97 Y114.181 E.0105
G1 X117.343 Y114.258 E.01194
G1 X121.573 Y114.258 E.13263
G1 X122.566 Y114.336 E.03123
G1 X123.494 Y114.559 E.02993
G1 X124.376 Y114.924 E.02993
G1 X125.19 Y115.423 E.02994
G1 X125.915 Y116.043 E.02991
G1 X126.535 Y116.768 E.02991
G1 X127.034 Y117.582 E.02994
G1 X127.399 Y118.464 E.02993
G1 X127.622 Y119.392 E.02993
G1 X127.7 Y120.385 E.03123
G1 X127.7 Y136.649 E.50995
G1 X127.782 Y137.213 E.01787
G1 X127.882 Y137.505 E.00968
G1 X128.167 Y138.004 E.01802
G1 X128.58 Y138.402 E.01798
G1 X128.84 Y138.572 E.00974
G1 X129.447 Y138.807 E.02041
G1 X129.953 Y138.857 E.01594
G1 X130.458 Y138.791 E.01597
G1 X130.989 Y138.572 E.01801
G1 X131.249 Y138.402 E.00974
G1 X131.662 Y138.004 E.01798
G1 X131.946 Y137.505 E.018
G1 X132.047 Y137.213 E.00969
G1 X132.129 Y136.649 E.01787
G1 X132.129 Y120.385 E.50995
G1 X132.207 Y119.392 E.03123
G1 X132.43 Y118.464 E.02993
G1 X132.795 Y117.582 E.02993
G1 X133.294 Y116.768 E.02994
G1 X133.913 Y116.043 E.02989
G1 X134.606 Y115.451 E.02858
G1 X135.456 Y114.923 E.03137
G1 X136.335 Y114.559 E.02983
G1 X137.263 Y114.336 E.02993
G1 X138.256 Y114.258 E.03123
G1 X142.54 Y114.256 E.13432
G1 X142.909 Y114.158 E.01197
G1 X143.175 Y113.959 E.01042
G1 X143.347 Y113.699 E.00977
G1 X143.429 Y113.315 E.01231
G1 X143.429 Y112.072 E.03897
G1 X143.391 Y111.808 E.00836
G1 X143.24 Y111.507 E.01056
G1 X142.93 Y111.24 E.01283
G1 X142.486 Y111.13 E.01434
G1 X132.479 Y111.13 E.31376
G1 X132.479 Y109.858 E.03988
G1 X146.386 Y109.858 E.43604
G1 X146.715 Y109.799 E.01048
G1 X146.969 Y109.656 E.00914
G1 X147.211 Y109.371 E.01172
G1 X147.329 Y108.858 E.0165
G1 X152.099 Y108.86 E.14956
G1 X152.1 Y111.13 E.07117
G1 X152.043 Y111.13 E.00179
G1 X151.515 Y111.291 E.01731
G1 X151.25 Y111.562 E.01188
G1 X151.127 Y111.849 E.00979
G1 X151.1 Y112.072 E.00704
G1 X151.1 Y144.915 E1.02977
G1 X151.18 Y145.294 E.01215
G1 X151.308 Y145.505 E.00774
G1 X151.515 Y145.696 E.00883
G1 X152.1 Y145.858 E.01903
G1 X152.1 Y145.915 E.00179
G1 X152.1 Y148.13 E.06945
G1 X132.479 Y148.13 E.6152
G1 X132.479 Y145.858 E.07124
G1 X142.486 Y145.858 E.31376
G1 X142.848 Y145.785 E.01158
G1 X143.136 Y145.598 E.01077
G1 X143.318 Y145.359 E.00942
G1 X143.406 Y145.122 E.00793
G1 X143.429 Y144.915 E.00653
G1 X143.417 Y143.591 E.04151
G1 X143.331 Y143.32 E.00891
G1 X143.092 Y143.015 E.01215
G1 X142.246 Y142.305 E.03463
G1 X141.615 Y141.576 E.03023
G1 X141.107 Y140.757 E.03022
G1 X140.735 Y139.868 E.03022
G1 X140.508 Y138.932 E.0302
G1 X140.429 Y137.929 E.03155
G1 X140.429 Y120.339 E.55152
G1 X140.347 Y119.775 E.01787
G1 X140.246 Y119.482 E.00972
G1 X139.992 Y119.025 E.01639
G1 X139.549 Y118.585 E.01958
G1 X139.289 Y118.416 E.00972
G1 X138.642 Y118.175 E.02165
G1 X138.253 Y118.13 E.01228
G1 X137.683 Y118.194 E.01798
G1 X137.14 Y118.416 E.01839
G1 X136.88 Y118.585 E.00972
G1 X136.494 Y118.95 E.01666
G1 X136.233 Y119.388 E.01599
G1 X136.082 Y119.775 E.01303
G1 X136 Y120.339 E.01787
G1 X136 Y136.6 E.50985
G1 X135.914 Y137.645 E.03288
G1 X135.667 Y138.619 E.03151
G1 X135.264 Y139.538 E.03146
G1 X134.714 Y140.379 E.03151
G1 X134.034 Y141.118 E.03149
G1 X133.241 Y141.735 E.0315
G1 X132.358 Y142.214 E.0315
G1 X131.408 Y142.54 E.03149
G1 X130.513 Y142.689 E.02845
G1 X129.994 Y142.725 E.01631
G1 X129.434 Y142.709 E.01757
G1 X128.421 Y142.54 E.0322
G1 X127.471 Y142.214 E.03149
G1 X126.588 Y141.735 E.0315
G1 X125.795 Y141.118 E.0315
G1 X125.115 Y140.379 E.03149
G1 X124.565 Y139.538 E.03151
G1 X124.162 Y138.619 E.03146
G1 X123.915 Y137.645 E.03151
G1 X123.829 Y136.6 E.03288
G1 X123.829 Y120.462 E.50599
G1 X123.816 Y120.183 E.00876
G1 X123.688 Y119.57 E.01963
G1 X123.447 Y119.114 E.01617
G1 X123.228 Y118.843 E.01092
G1 X122.803 Y118.475 E.01763
G1 X122.305 Y118.247 E.01717
G1 X122.003 Y118.171 E.00976
G1 X121.504 Y118.134 E.01569
G1 X120.872 Y118.265 E.02024
G1 X120.588 Y118.39 E.00973
G1 X120.237 Y118.619 E.01314
G1 X120.009 Y118.829 E.00972
G1 X119.658 Y119.307 E.01859
G1 X119.468 Y119.828 E.01739
G1 X119.4 Y120.339 E.01616
G1 X119.4 Y137.928 E.55149
G1 X119.316 Y138.961 E.0325
G1 X119.075 Y139.924 E.03113
G1 X118.68 Y140.835 E.03113
G1 X118.143 Y141.67 E.03113
G1 X117.471 Y142.412 E.03139
G1 X116.639 Y143.11 E.03405
G1 X116.463 Y143.399 E.01061
G1 X116.4 Y143.736 E.01075
G1 X116.4 Y144.915 E.03697
G1 X116.423 Y145.122 E.00653
G1 X116.511 Y145.359 E.00793
G1 X116.693 Y145.598 E.00942
G1 X116.98 Y145.785 E.01074
G1 X117.343 Y145.858 E.01161
G1 X128.85 Y145.858 E.36079
G1 X128.85 Y148.13 E.07124
G1 X85.331 Y148.128 E1.36451
G1 X85.329 Y136.322 E.37017
G1 X85.274 Y136.006 E.01006
G1 X85.122 Y135.733 E.0098
G1 X84.816 Y135.483 E.01239
G1 X84.329 Y135.38 E.01561
G1 X84.329 Y121.608 E.43181
G1 X84.816 Y121.504 E.01561
G1 X84.991 Y121.361 E.00709
G1 X84.787 Y121.058 F9000
G1 F1200
G1 X84.881 Y120.939 E.00475
G1 X84.952 Y120.665 E.00887
G1 X84.952 Y108.793 E.37224
G1 X85.04 Y108.569 E.00755
G1 X85.264 Y108.481 E.00755
G1 X125.977 Y108.481 E1.27653
G1 X125.977 Y108.915 E.01361
G1 X126.059 Y109.209 E.00957
G1 X126.248 Y109.398 E.00838
G1 X126.543 Y109.481 E.00961
G1 X129.227 Y109.481 E.08415
G1 X129.227 Y111.507 E.06352
G1 X117.245 Y111.515 E.37569
G1 X116.953 Y111.663 E.01026
G1 X116.844 Y111.806 E.00564
G1 X116.777 Y112.072 E.0086
G1 X116.777 Y113.315 E.03897
G1 X116.783 Y113.394 E.00248
G1 X116.877 Y113.636 E.00814
G1 X117.079 Y113.815 E.00846
G1 X117.343 Y113.881 E.00853
G1 X121.587 Y113.881 E.13307
G1 X122.625 Y113.962 E.03264
G1 X123.611 Y114.199 E.0318
G1 X124.548 Y114.587 E.0318
G1 X125.412 Y115.117 E.03178
G1 X126.183 Y115.775 E.03178
G1 X126.841 Y116.546 E.03178
G1 X127.371 Y117.411 E.03181
G1 X127.759 Y118.347 E.03177
G1 X127.996 Y119.333 E.0318
G1 X128.077 Y120.371 E.03264
G1 X128.085 Y136.742 E.5133
G1 X128.214 Y137.326 E.01875
G1 X128.528 Y137.841 E.01891
G1 X128.95 Y138.206 E.01749
G1 X129.419 Y138.412 E.01606
G1 X129.938 Y138.481 E.01642
G1 X130.453 Y138.395 E.01637
G1 X130.993 Y138.125 E.01893
G1 X131.416 Y137.694 E.01893
G1 X131.675 Y137.15 E.01889
G1 X131.752 Y136.649 E.01589
G1 X131.752 Y120.371 E.51038
G1 X131.833 Y119.333 E.03264
G1 X132.07 Y118.347 E.0318
G1 X132.458 Y117.411 E.03177
G1 X132.988 Y116.546 E.03181
G1 X133.646 Y115.775 E.03178
G1 X134.383 Y115.146 E.03038
G1 X135.283 Y114.586 E.03324
G1 X136.218 Y114.199 E.03173
G1 X137.204 Y113.962 E.0318
G1 X138.241 Y113.881 E.03261
G1 X142.602 Y113.869 E.13674
G1 X142.836 Y113.759 E.00811
G1 X143.002 Y113.546 E.00847
G1 X143.051 Y113.334 E.00682
G1 X143.029 Y111.914 E.04453
G1 X142.938 Y111.733 E.00635
G1 X142.752 Y111.573 E.00769
G1 X142.486 Y111.507 E.00859
G1 X132.102 Y111.507 E.32558
G1 X132.102 Y109.481 E.06352
G1 X146.454 Y109.477 E.45
G1 X146.683 Y109.397 E.00761
G1 X146.881 Y109.189 E.009
G1 X146.952 Y108.915 E.00887
G1 X146.952 Y108.481 E.01361
G1 X152.099 Y108.481 E.16138
G1 X152.264 Y108.51 E.00525
G1 X152.431 Y108.613 E.00615
G1 X152.477 Y108.793 E.00583
G1 X152.477 Y111.507 E.0851
G1 X152.043 Y111.507 E.01361
G1 X151.726 Y111.604 E.01039
G1 X151.567 Y111.766 E.00712
G1 X151.477 Y112.072 E.01
G1 X151.477 Y144.915 E1.02977
G1 X151.525 Y145.142 E.00727
G1 X151.726 Y145.384 E.00986
G1 X152.043 Y145.481 E.01039
G1 X152.477 Y145.481 E.01361
G1 X152.477 Y145.915 E.01361
G1 X152.477 Y148.194 E.07146
G1 X152.389 Y148.418 E.00755
G1 X152.165 Y148.507 E.00756
G1 X132.102 Y148.507 E.62906
G1 X132.102 Y145.481 E.09488
G1 X142.486 Y145.481 E.32558
G1 X142.584 Y145.472 E.00309
G1 X142.876 Y145.325 E.01025
G1 X142.985 Y145.181 E.00566
G1 X143.052 Y144.915 E.0086
G1 X143.052 Y143.737 E.03694
G1 X142.993 Y143.487 E.00805
G1 X142.85 Y143.304 E.00728
G1 X141.981 Y142.574 E.03558
G1 X141.311 Y141.8 E.0321
G1 X140.771 Y140.931 E.03208
G1 X140.376 Y139.986 E.03211
G1 X140.135 Y138.992 E.03207
G1 X140.052 Y137.944 E.03296
G1 X140.052 Y120.339 E.55199
G1 X139.915 Y119.661 E.02169
G1 X139.601 Y119.146 E.01891
G1 X139.137 Y118.761 E.0189
G1 X138.596 Y118.549 E.01822
G1 X138.17 Y118.508 E.01342
G1 X137.675 Y118.593 E.01575
G1 X137.136 Y118.863 E.0189
G1 X136.713 Y119.293 E.01891
G1 X136.454 Y119.837 E.01889
G1 X136.377 Y120.339 E.01592
G1 X136.377 Y136.615 E.51032
G1 X136.287 Y137.707 E.03435
G1 X136.025 Y138.741 E.03344
G1 X135.596 Y139.719 E.03348
G1 X135.013 Y140.612 E.03344
G1 X134.29 Y141.397 E.03346
G1 X133.448 Y142.052 E.03345
G1 X132.51 Y142.56 E.03345
G1 X131.5 Y142.907 E.03348
G1 X130.434 Y143.085 E.03389
G1 X129.914 Y143.106 E.01632
G1 X129.395 Y143.085 E.01629
G1 X128.328 Y142.907 E.03392
G1 X127.319 Y142.56 E.03345
G1 X126.381 Y142.052 E.03345
G1 X125.539 Y141.397 E.03345
G1 X124.816 Y140.612 E.03346
G1 X124.233 Y139.719 E.03344
G1 X123.804 Y138.741 E.03348
G1 X123.542 Y137.707 E.03344
G1 X123.452 Y136.615 E.03435
G1 X123.45 Y120.294 E.51173
G1 X123.357 Y119.76 E.017
G1 X123.116 Y119.293 E.01648
G1 X122.973 Y119.12 E.00704
